styles/images/contentBGLeft.svg

<svg width="100" height="200" fill="none" xmlns="http://www.w3.org/2000/svg"><path fill="#79C8C7" d="M0 200h100V100H0z"/><path fill-rule="evenodd" clip-rule="evenodd" d="M0 200c-55.228 0-100-44.772-100-100S-55.228 0 0 0s100 44.772 100 100S55.228 200 0 200Zm0-67c-18.225 0-33-14.775-33-33s14.775-33 33-33 33 14.775 33 33-14.775 33-33 33Z" fill="#012F34"/><path fill-rule="evenodd" clip-rule="evenodd" d="M100 156h-4v4h4v-4Zm-11 0h4v4h-4v-4Zm0 8h4v4h-4v-4Zm4 8h-4v4h4v-4Zm-4 8h4v4h-4v-4Zm4 8h-4v4h4v-4Zm-4 8h4v4h-4v-4Zm-3-40h-4v4h4v-4Zm0 8h-4v4h4v-4Zm-4 8h4v4h-4v-4Zm4 8h-4v4h4v-4Zm-4 8h4v4h-4v-4Zm4 8h-4v4h4v-4Zm14-32h-4v4h4v-4Zm-21-8h-4v4h4v-4Zm0 8h-4v4h4v-4Zm-4 8h4v4h-4v-4Zm4 8h-4v4h4v-4Zm-4 8h4v4h-4v-4Zm4 8h-4v4h4v-4Zm21-24h-4v4h4v-4Zm-28-16h-4v4h4v-4Zm0 8h-4v4h4v-4Zm-4 8h4v4h-4v-4Zm4 8h-4v4h4v-4Zm-4 8h4v4h-4v-4Zm4 8h-4v4h4v-4Zm28-16h-4v4h4v-4Zm-35-24h-4v4h4v-4Zm0 8h-4v4h4v-4Zm-4 8h4v4h-4v-4Zm4 8h-4v4h4v-4Zm-4 8h4v4h-4v-4Zm4 8h-4v4h4v-4Zm35-8h-4v4h4v-4Zm-42-32h-4v4h4v-4Zm0 8h-4v4h4v-4Zm-4 8h4v4h-4v-4Zm4 8h-4v4h4v-4Zm-4 8h4v4h-4v-4Zm4 8h-4v4h4v-4Zm42 0h-4v4h4v-4Zm-49-40h-4v4h4v-4Zm0 8h-4v4h4v-4Zm-4 8h4v4h-4v-4Zm4 8h-4v4h4v-4Zm-4 8h4v4h-4v-4Zm4 8h-4v4h4v-4Z" fill="#F67E7E"/></svg>

<svg width="100" height="200" viewBox="0 0 100 200" fill="none" xmlns="http://www.w3.org/2000/svg">
<rect width="100" height="100" transform="matrix(1 0 0 -1 0 200)" fill="#79C8C7"/>
<path fill-rule="evenodd" clip-rule="evenodd" d="M0 200C-55.2285 200 -100 155.228 -100 100C-100 44.7715 -55.2285 0 0 0C55.2285 0 100 44.7715 100 100C100 155.228 55.2285 200 0 200ZM0 133C-18.2254 133 -33 118.225 -33 100C-33 81.7746 -18.2254 67 0 67C18.2254 67 33 81.7746 33 100C33 118.225 18.2254 133 0 133Z" fill="#012F34"/>
<path fill-rule="evenodd" clip-rule="evenodd" d="M100 156H96V160H100V156ZM89 156H93V160H89V156ZM89 164H93V168H89V164ZM93 172H89V176H93V172ZM89 180H93V184H89V180ZM93 188H89V192H93V188ZM89 196H93V200H89V196ZM86 156H82V160H86V156ZM86 164H82V168H86V164ZM82 172H86V176H82V172ZM86 180H82V184H86V180ZM82 188H86V192H82V188ZM86 196H82V200H86V196ZM100 164H96V168H100V164ZM79 156H75V160H79V156ZM79 164H75V168H79V164ZM75 172H79V176H75V172ZM79 180H75V184H79V180ZM75 188H79V192H75V188ZM79 196H75V200H79V196ZM100 172H96V176H100V172ZM72 156H68V160H72V156ZM72 164H68V168H72V164ZM68 172H72V176H68V172ZM72 180H68V184H72V180ZM68 188H72V192H68V188ZM72 196H68V200H72V196ZM100 180H96V184H100V180ZM65 156H61V160H65V156ZM65 164H61V168H65V164ZM61 172H65V176H61V172ZM65 180H61V184H65V180ZM61 188H65V192H61V188ZM65 196H61V200H65V196ZM100 188H96V192H100V188ZM58 156H54V160H58V156ZM58 164H54V168H58V164ZM54 172H58V176H54V172ZM58 180H54V184H58V180ZM54 188H58V192H54V188ZM58 196H54V200H58V196ZM100 196H96V200H100V196ZM51 156H47V160H51V156ZM51 164H47V168H51V164ZM47 172H51V176H47V172ZM51 180H47V184H51V180ZM47 188H51V192H47V188ZM51 196H47V200H51V196Z" fill="#F67E7E"/>
</svg>
